X:1
T: Persian Dance
N:
C:
S:aka Galopede OR Yarmouth Reel
A:
O:
R:
M:4/4
K:A
I:speed 200
%W:
% voice 1 (1 lines, 50 notes)
K:A
M:4/4
L:1/16
e2 d2 |c4 c2 d2 B4 B2 c2 |A4 A4 A4 B2 c2 |d2 c2 d2 e2 f2 e2 d2 c2 |B4 B4 B4 e2 d2 |c4 c2 d2 B4 B2 c2 |A4 A4 A4 B2 c2 |d2 c2 B2 A2 G2 A2 B2 G2 |A4 A4 A4 e2 d2 |
%W:
% voice 1 (1 lines, 48 notes)
c4 c2 d2 B4 B2 c2 |A4 A4 A4 B2 c2 |d2 c2 d2 e2 f2 e2 d2 c2 |B4 B4 B4 e2 d2 |c4 c2 d2 B4 B2 c2 |A4 A4 A4 B2 c2 |d2 c2 B2 A2 G2 A2 B2 G2 |A4 A4 A4 e2 d2 |
%W:
% voice 1 (1 lines, 47 notes)
c4 a2 g2 f4 f2 e2 |e2 d2 c2 d2 B4 e2 d2 |c4 a2 g2 f2 e2 d2 c2 |B12 e2 d2 |c4 a2 g2 f4 f2 e2 |e2 d2 c2 d2 B4 e2 d2 |c2 e2 d2 c2 B2 d2 c2 B2 |A12 c2 d2 |
%W:
% voice 1 (1 lines, 36 notes)
e4 e4 e4 a4 |e4 e4 e4 a4 |e4 e4 f2 e2 d2 c2 |B2 A2 B2 c2 B4 c2 d2 |e4 e4 e4 a4 |e4 e4 e4 a4 |e4 c4 e2 d2 c2 B2 |A12 ||
